!!!OTL: INNSBRUCK ICH MUSS DICH LASSEN
!!!ARE: Europa, Mitteleuropa, Deutschland
!!!SCT: E0743
!!!YEM: Copyright 1995, estate of Helmut Schaffrath.
**kern
*ICvox
*Ivox
*M4/4
*k[b-]
*F:
{2f
=1
4f
4g
2a
=2
2cc
2b-
=3
2a
4r}
{4a
=4
4.cc
8b-
2g
=5
2a
2f
=6
2e
4r}
{4g
=7
4g
4f
4e
4f
=8
2g
4r}
{4g
=9
4f
4g
2a
=10
2cc
2b-
=11
2a
4r}
{4a
=12
4.cc
8b-
2g
=13
2a
2f
=14
2e
4r}
{4e
=15
4f
4g
2a
=16
4.b-
8a
8g
8f
4g
=17
8g
8f
2f
4e
=18
1f
=19
2r}
==
!!!AGN: Abschieds - Lied, Liebe
!!!ONB: ESAC (Essen Associative Code) Database: ERK2
!!!AMT: simple quadruple
!!!AIN: vox
!!!EED: Helmut Schaffrath
!!!EEV: 1.0
*-
